static/img/27- html-achievement.svg

<svg viewBox="0 0 100 112" xmlns="http://www.w3.org/2000/svg"><circle cx="50.34" cy="56" fill="#e8f4fa" r="40"/><path d="m73.24 56.14-2.76-22.48a1 1 0 0 0 -1.31-.83 17.83 17.83 0 0 1 -12.77-.56 18.59 18.59 0 0 0 -11.4-.94l-10.5 2.46 2.84 24.54 10.66-2.5a18.59 18.59 0 0 1 11.43.94 18.68 18.68 0 0 0 13.05.47h.11a1 1 0 0 0 .65-1.1z" fill="#656769"/><path d="m70.48 33.66a1 1 0 0 0 -1.31-.83 17.84 17.84 0 0 1 -12.77-.56 18.59 18.59 0 0 0 -11.4-.94l-10.5 2.46.73 6.35 10.3-2.31a20.45 20.45 0 0 1 12 .94 20.23 20.23 0 0 0 13.64.55z" fill="#87898c"/><g stroke="#191816" stroke-linecap="round" stroke-linejoin="round"><path d="m73.24 56.14-2.76-22.48a1 1 0 0 0 -1.31-.83 17.83 17.83 0 0 1 -12.77-.56 18.59 18.59 0 0 0 -11.4-.94l-10.5 2.46 2.84 24.54 10.66-2.5a18.59 18.59 0 0 1 11.43.94 18.68 18.68 0 0 0 13.05.47h.11a1 1 0 0 0 .65-1.1z" fill="none"/><path d="m38.67 85a1.75 1.75 0 0 1 -1.94-1.53l-5.88-50.72a1.75 1.75 0 0 1 1.54-1.94 1.74 1.74 0 0 1 1.94 1.53l5.87 50.66a1.75 1.75 0 0 1 -1.53 2z" fill="#debb7e"/><path d="m44.92 43.73 3.08-3.07a1.2 1.2 0 0 0 0-1.66 1.2 1.2 0 0 0 -1.68 0l-3.63 3.63a2.39 2.39 0 0 0 0 3.36l3.63 3.63a1.2 1.2 0 0 0 1.68 0 1.2 1.2 0 0 0 0-1.68l-3.07-3.07a.79.79 0 0 1 -.01-1.14z" fill="#6dd627"/><path d="m62.26 44.05-3.07-3.05a1.18 1.18 0 0 1 0-1.68 1.18 1.18 0 0 1 1.67 0l3.64 3.64a2.38 2.38 0 0 1 0 3.35l-3.64 3.63a1.17 1.17 0 0 1 -1.67 0 1.17 1.17 0 0 1 0-1.67l3.07-3.08a.78.78 0 0 0 0-1.14z" fill="#6dd627"/><path d="m51.66 51.17a1.24 1.24 0 0 1 -.8-1.57l4-12.29a1.25 1.25 0 0 1 1.58-.8 1.26 1.26 0 0 1 .8 1.58l-4 12.29a1.25 1.25 0 0 1 -1.58.79z" fill="#6dd627"/></g><ellipse cx="50.84" cy="88.45" fill="#191816" opacity=".15" rx="17" ry="1.5"/></svg>

<svg id="Multicolor" xmlns="http://www.w3.org/2000/svg" viewBox="0 0 100 112"><defs><style>.cls-1{fill:#e8f4fa;}.cls-2{fill:#656769;}.cls-3{fill:#87898c;}.cls-4{fill:none;}.cls-4,.cls-5,.cls-6{stroke:#191816;stroke-linecap:round;stroke-linejoin:round;}.cls-5{fill:#debb7e;}.cls-6{fill:#6dd627;}.cls-7{fill:#191816;opacity:0.15;}</style></defs><title>27- html-achievement</title><g id="Background"><g id="New_Symbol_51-17" data-name="New Symbol 51"><circle class="cls-1" cx="50.34" cy="56" r="40"/></g></g><g id="Scene"><path class="cls-2" d="M73.24,56.14,70.48,33.66a1,1,0,0,0-1.31-.83,17.83,17.83,0,0,1-12.77-.56A18.59,18.59,0,0,0,45,31.33L34.5,33.79l2.84,24.54L48,55.83a18.59,18.59,0,0,1,11.43.94,18.68,18.68,0,0,0,13.05.47l.11,0A1,1,0,0,0,73.24,56.14Z"/><path class="cls-3" d="M70.48,33.66a1,1,0,0,0-1.31-.83,17.84,17.84,0,0,1-12.77-.56A18.59,18.59,0,0,0,45,31.33L34.5,33.79l.73,6.35,10.3-2.31a20.45,20.45,0,0,1,12,.94,20.23,20.23,0,0,0,13.64.55Z"/><path class="cls-4" d="M73.24,56.14,70.48,33.66a1,1,0,0,0-1.31-.83,17.83,17.83,0,0,1-12.77-.56A18.59,18.59,0,0,0,45,31.33L34.5,33.79l2.84,24.54L48,55.83a18.59,18.59,0,0,1,11.43.94,18.68,18.68,0,0,0,13.05.47l.11,0A1,1,0,0,0,73.24,56.14Z"/><path class="cls-5" d="M38.67,85h0a1.75,1.75,0,0,1-1.94-1.53L30.85,32.75a1.75,1.75,0,0,1,1.54-1.94h0a1.74,1.74,0,0,1,1.94,1.53L40.2,83A1.75,1.75,0,0,1,38.67,85Z"/><path class="cls-6" d="M44.92,43.73,48,40.66A1.2,1.2,0,0,0,48,39h0a1.2,1.2,0,0,0-1.68,0l-3.63,3.63h0a2.39,2.39,0,0,0,0,3.36h0l3.63,3.63a1.2,1.2,0,0,0,1.68,0h0a1.2,1.2,0,0,0,0-1.68l-3.07-3.07A.79.79,0,0,1,44.92,43.73Z"/><path class="cls-6" d="M62.26,44.05,59.19,41a1.18,1.18,0,0,1,0-1.68h0a1.18,1.18,0,0,1,1.67,0l3.64,3.64h0a2.38,2.38,0,0,1,0,3.35h0l-3.64,3.63a1.17,1.17,0,0,1-1.67,0h0a1.17,1.17,0,0,1,0-1.67l3.07-3.08A.78.78,0,0,0,62.26,44.05Z"/><path class="cls-6" d="M51.66,51.17h0a1.24,1.24,0,0,1-.8-1.57l4-12.29a1.25,1.25,0,0,1,1.58-.8h0a1.26,1.26,0,0,1,.8,1.58l-4,12.29A1.25,1.25,0,0,1,51.66,51.17Z"/><ellipse class="cls-7" cx="50.84" cy="88.45" rx="17" ry="1.5"/></g></svg>
